X: 3281
T: Mrs General Campbell's Reel.
%R: reel
B: Niel Gow & Sons "Complete Repository" v.3 p.28 #1
Z: 2021 John Chambers <jc:trillian.mit.edu>
M: C
L: 1/8
K: A
% - - - - - - - - - -
V: 1 staves=2
e |\
Tc>A A/A/A EAA=c | B=G dB gded | Tc>A A/A/A EAA=c | B=G gB A/A/A A :| ^g | (~aga).b abae | =gbeg BGdB |
(~aga).b abae | de=gB A/A/A A ^g || ab =ga egdg | B=gdg BGdB | cAdB de=ga | =geg>B A/A/A A |]
% - - - - - - - - - -
V: 2 clef=bass middle=d
z | A2A2 A2A2 | =G2G2 G2G2 | A2A2 A2A2 | E2E2 A2A :| z | a2a2 a2a2 | =g2g2 g2g2 |
a2a2 a2a2 | e2e2 A2A2 || a2[a2c'2] [a2c'2]a2 | =g2g2 g2g2 | a2b2 c'2d'2 | e'2e2 a2a |]


